rospo-dark/16x16/actions/gtk-select-font.svg

<svg height="16" viewBox="0 0 16 16" width="16" xmlns="http://www.w3.org/2000/svg"><path d="m7 1-5 14h2.5l1.0625-3h4.875l1.0625 3h2.78125l-5.28125-14zm7 0a1 1 0 0 0 -1 1 1 1 0 0 0 1 1 1 1 0 0 0 1-1 1 1 0 0 0 -1-1zm0 3a1 1 0 0 0 -1 1 1 1 0 0 0 1 1 1 1 0 0 0 1-1 1 1 0 0 0 -1-1zm-6 1 1.75 5h-3.5zm6 2a1 1 0 0 0 -1 1 1 1 0 0 0 1 1 1 1 0 0 0 1-1 1 1 0 0 0 -1-1z" fill="#d3dae3"/></svg>

<?xml version="1.0" encoding="UTF-8" standalone="no"?>
<svg xmlns="http://www.w3.org/2000/svg" width="22" height="22" viewBox="0 0 22 22">
 <defs>
  <style type="text/css" id="current-color-scheme">
   .ColorScheme-Text { color:#d3dae3; } .ColorScheme-Highlight { color:#5294e2; }
  </style>
 </defs>
 <path style="fill:currentColor;opacity:1" class="ColorScheme-Text" transform="translate(3 3)" d="M 7 1 L 2 15 L 4.5 15 L 5.5625 12 L 10.4375 12 L 11.5 15 L 14.28125 15 L 9 1 L 7 1 z M 14 1 A 1 1 0 0 0 13 2 A 1 1 0 0 0 14 3 A 1 1 0 0 0 15 2 A 1 1 0 0 0 14 1 z M 14 4 A 1 1 0 0 0 13 5 A 1 1 0 0 0 14 6 A 1 1 0 0 0 15 5 A 1 1 0 0 0 14 4 z M 8 5 L 9.75 10 L 6.25 10 L 8 5 z M 14 7 A 1 1 0 0 0 13 8 A 1 1 0 0 0 14 9 A 1 1 0 0 0 15 8 A 1 1 0 0 0 14 7 z"/>
</svg>
